cached_logos/arrow.svg

<svg id="svg1487" xmlns="http://www.w3.org/2000/svg" viewBox="-15.079359999999951 -4.680020000000013 749.84 217.36"><defs><style>.cls-1{fill:#070707;}</style></defs><title>arrow</title><g id="layer1"><path id="path2043" class="cls-1" d="M0,187.408V166.26319l30.75-30.704C47.6625,118.672,61.5,104.49879,61.5,104.06323S47.6625,89.42209,30.75,72.49531L0,41.71934V20.85966C0,9.38682.25312.00043.56251.001,1.63765.003,104.25,103.17961,104.25,104.25867c0,1.09474-100.49638,102.201-102.9375,103.56217C.07621,208.51021,0,207.32464,0,187.408Zm129.75.25057V166.8171l30.75-30.87583c16.91252-16.98168,30.75-31.314,30.75-31.84949S177.41251,89.2837,160.5,72.375l-30.75-30.7431V20.81593C129.75,9.36716,130.004,0,130.31453,0,131.41528,0,234,103.14726,234,104.25406,234,105.35813,131.40864,208.5,130.31049,208.5,130.00222,208.5,129.75,199.12136,129.75,187.65855Zm-65.25-.325v-20.4165l30.75-30.783C112.1625,119.20339,126,104.85559,126,104.25S112.1625,89.29663,95.25,72.366L64.5,41.583V21.21077c0-11.20474.27353-20.54132.608-20.748S89.1509,23.52371,117.79349,52.16853L169.871,104.25,118.12505,156c-28.46026,28.4625-52.16874,51.75-52.68546,51.75-.72973,0-.93955-4.55972-.93955-20.41649Z"/><g id="text2047"><path id="path2049" d="M335.27134,137.53855l-7.278-16.90737h-32.807l-7.278,16.90739H269.32137L303.13613,59.272H320.0435l33.81475,78.2666ZM311.64579,82.5616l-9.8533,22.72979h19.59464Z"/><path id="path2051" d="M426.31818,85.24886q0,18.81083-14.89193,24.29733l19.81858,27.99234H409.74671l-17.35525-24.96916H380.29877v24.96918H362.83155V59.272h29.67188q18.251,0,25.97689,6.15831,7.83786,6.15834,7.83786,19.8186Zm-33.2549,12.20465q8.95755,0,12.20466-2.91121t3.24711-9.18148q0-6.38226-3.35908-8.73363t-11.75678-2.35133H380.29877V97.45351Z"/><path id="path2053" d="M507.67093,85.24886q0,18.81083-14.89193,24.29733l19.81858,27.99234H491.09946L473.7442,112.56935H461.65151v24.96918H444.1843V59.272h29.67188q18.251,0,25.97689,6.15831,7.83784,6.15834,7.83786,19.8186ZM474.416,97.45351q8.95755,0,12.20467-2.91121t3.24711-9.18148q0-6.38226-3.35908-8.73363t-11.75679-2.35133H461.65151V97.45351Z"/><path id="path2055" d="M584.5659,98.01335a25.68355,25.68355,0,0,0-6.71816-17.91511,22.14967,22.14967,0,0,0-33.031,0,25.68355,25.68355,0,0,0-6.71816,17.91511,25.53779,25.53779,0,0,0,6.71816,17.80313,22.37758,22.37758,0,0,0,33.031,0A25.53779,25.53779,0,0,0,584.5659,98.01335Zm5.93437,28.77614q-11.86876,11.53283-29.224,11.53283t-29.224-11.53283q-11.86875-11.6448-11.86875-28.8881t11.86875-28.77613q11.86875-11.64485,29.224-11.64482t29.224,11.64482Q602.36905,80.65809,602.369,97.90139T590.50027,126.78949Z"/><path id="path2057" d="M640.2654,104.28365,654.14961,59.272h18.251l13.77225,45.0117L701.73659,59.272h18.92283l-27.32052,78.2666H680.35045l-17.1313-54.41712-17.01936,54.41712H633.21133L605.8908,59.272h18.92283Z"/></g></g></svg>

<svg xmlns="http://www.w3.org/2000/svg" viewBox="-15.42 -14.42 749.84 236.84"><title>Arrow logo</title><g><path fill="#070707" d="M0 187.408v-21.145l30.75-30.704c16.913-16.887 30.75-31.06 30.75-31.496s-13.837-14.64-30.75-31.568L0 41.72V20.86C0 9.388.253 0 .563.002 1.638.003 104.25 103.18 104.25 104.259c0 1.094-100.496 102.2-102.938 103.562C.077 208.51 0 207.325 0 187.408zm129.75.25v-20.84l30.75-30.877c16.913-16.981 30.75-31.314 30.75-31.85s-13.837-14.807-30.75-31.716l-30.75-30.743V20.816c0-11.449.254-20.816.565-20.816C131.415 0 234 103.147 234 104.254c0 1.104-102.591 104.246-103.69 104.246-.308 0-.56-9.379-.56-20.841zm-65.25-.324v-20.417l30.75-30.783c16.912-16.93 30.75-31.278 30.75-31.884s-13.838-14.953-30.75-31.884L64.5 41.583V21.211c0-11.205.274-20.542.608-20.748s24.043 23.06 52.685 51.706l52.078 52.081L118.125 156c-28.46 28.462-52.169 51.75-52.685 51.75-.73 0-.94-4.56-.94-20.416z"/><g><path d="M335.271 137.539l-7.278-16.908h-32.807l-7.278 16.908h-18.587l33.815-78.267h16.907l33.815 78.267zm-23.625-54.977l-9.854 22.73h19.595zm114.672 2.687q0 18.81-14.892 24.297l19.819 27.993h-21.498l-17.356-24.97H380.3v24.97h-17.467V59.272h29.671q18.251 0 25.977 6.158 7.838 6.159 7.838 19.819zm-33.255 12.205q8.958 0 12.205-2.912t3.247-9.181q0-6.382-3.359-8.734t-11.757-2.351h-13.1v23.178zM507.67 85.249q0 18.81-14.891 24.297l19.819 27.993h-21.499l-17.355-24.97h-12.092v24.97h-17.468V59.272h29.672q18.251 0 25.977 6.158 7.838 6.159 7.838 19.819zm-33.254 12.205q8.958 0 12.205-2.912t3.247-9.181q0-6.382-3.36-8.734t-11.756-2.351h-13.1v23.178zm110.15.559a25.684 25.684 0 0 0-6.718-17.915 22.15 22.15 0 0 0-33.031 0 25.684 25.684 0 0 0-6.718 17.915 25.538 25.538 0 0 0 6.718 17.803 22.378 22.378 0 0 0 33.03 0 25.538 25.538 0 0 0 6.719-17.803zm5.934 28.776q-11.868 11.533-29.224 11.533t-29.224-11.533q-11.868-11.644-11.868-28.888t11.868-28.776q11.869-11.645 29.224-11.645T590.5 69.125q11.87 11.533 11.869 28.776T590.5 126.79zm49.765-22.505l13.885-45.012h18.25l13.773 45.012 15.564-45.012h18.922l-27.32 78.267H680.35L663.22 83.12l-17.02 54.42h-12.99l-27.32-78.267h18.923z"/></g></g></svg>
